X:0030
M:2/4
L:1/8
Q:1/4=104
K:D
fd de/f/|gfed|cAeA       |cAeg             |
fd de/f/|gfed|cd e/g/f/e/|d/d/d d2        :|

